!!!COM: Haydn, Franz Joseph
!!!ONM: Opus 09, No. 3
!!!OTL: Grave 
!!!OMV: 4
!!!SCT: H /disk/dos2/musedata_2000/haydn/traut/quart/op09n3/stage1/04
!!!SCA: Thematisch-bibliographisches Werkevererzeichnis (A. van Hoboken)
!!!YOR: Trautwein Edition
!!!EED: Frances Bennion
!!!ENC: Frances Bennion
!!!CDT: 1732/3/31/-1809/5/31/
!!!OCY: Österreich
!!!YEC: Copyright (c) 1994, 2000 Center for Computer Assisted Research in the Humanities
!!!YEM: Rights to all derivative editions reserved.
!!!YEM: Refer to licensing agreement for further details.
!!!YEN: United States of America
**kern	**kern	**kern	**kern
*k[f#]	*k[f#]	*k[f#]	*k[f#]
*G:	*G:	*G:	*G:
*clefG	*clefG	*clefC3	*clefF4
*M2/4	*M2/4	*M2/4	*M2/4
*tb32	*tb32	*tb32	*tb32
=0-	=0-	=0-	=0-
4.r	4.r	4.r	4.r
16b	16g	8r	8r
16cc	16a	.	.
=1	=1	=1	=1
8dd	8b	2r	2r
8b	8g	.	.
8cc	8a	.	.
8dd	8b	.	.
=2	=2	=2	=2
4ee	4cc	4r	4r
8r	8r	4G	4GG
16a	16f#	.	.
16b	16g	.	.
=3	=3	=3	=3
8cc	8a	2r	2r
8a	8f#	.	.
8b	8g	.	.
8cc	8a	.	.
=4	=4	=4	=4
4dd	4b	2r	2r
8r	4r	.	.
8d	.	.	.
=5	=5	=5	=5
8g	8d	8B	8G
8g	8d	8B	8G
8g	8d	8B	8G
8g	8d	8B	8G
=6	=6	=6	=6
8.f#	2d	2c	2A
16g	.	.	.
8f#	.	.	.
8d	.	.	.
=7	=7	=7	=7
8g	8d	8d	8B
8a	8d	8d	8F#
8b	8d	8d	8G
8cc	8a	8e	8C
=8	=8	=8	=8
4b	4g	2d	2D
8a	8f#	.	.
8d	8d	.	.
=9	=9	=9	=9
8g	8d	8B	8GG
8g	8d	8B	8G
8g	8d	8B	8G
8g	8d	8B	8G
=10	=10	=10	=10
8.f#	2d	2c	2A
16g	.	.	.
8f#	.	.	.
8d	.	.	.
=11	=11	=11	=11
8g	8d	8B	8B
8a	8d	8f#	8F#
8b	8d	8g	8G
8cc#	8g	8e	8E
=12	=12	=12	=12
4dd	4f#	4d	4D
8r	4r	4r	4r
8aa	.	.	.
=13	=13	=13	=13
8gg#	2r	2r	2r
8aa	.	.	.
8ff#	.	.	.
8dd	.	.	.
=14	=14	=14	=14
4cc#	4g	4e	4A
8dd	8f#	8f#	8d
8bb	8r	8r	8r
=15	=15	=15	=15
8aa#	2r	2r	2r
8bb	.	.	.
8gg	.	.	.
8ee	.	.	.
=16	=16	=16	=16
4dd#	4a	4f#	4BB
8ee	8g	8g	8E
8gg	8r	8r	8r
=17	=17	=17	=17
8ff#	2r	2r	2r
8gg	.	.	.
8ee	.	.	.
8cc#	.	.	.
=18	=18	=18	=18
8a	4.c#	4.A	2r
8gg	.	.	.
[4a	.	.	.
.	8d	8B	.
=19	=19	=19	=19
8a]	8e	8c#	2r
8b-	8f	8d	.
8a	8e	8c#	.
8g#	8d	8B	.
=20	=20	=20	=20
8a	4.c#	4.A	2r
8gg	.	.	.
[4a	.	.	.
.	8d	8B	.
=21	=21	=21	=21
8a]	8e	8c#	2r
8b-	8f	8d	.
8a	8e	8c#	.
8g#	8d	8B	.
=22	=22	=22	=22
16a	16e	16c#	2r
16b-	16f	16d	.
16a	16e	16c#	.
16g#	16d	16B	.
16a	16e	16c#	.
16b-	16f	16d	.
16a	16e	16c#	.
16g#	16d	16B	.
=23	=23	=23	=23
16a	16e	16c#	2r
16b-	16f	16d	.
16a	16e	16c#	.
16g#	16d	16B	.
16a	16e	16c#	.
16b-	16f	16d	.
16a	16e	16c#	.
16g#	16d	16B	.
=24	=24	=24	=24
4a	[2e	[2c#	2r
[4b-	.	.	.
=25	=25	=25	=25
4b-]	2e_	2c#_	2r
4a	.	.	.
=26	=26	=26	=26
[2g	2e_	2c#_	16A
.	.	.	16B-
.	.	.	16A
.	.	.	16G#
.	.	.	16A
.	.	.	16B-
.	.	.	16A
.	.	.	16G#
=27	=27	=27	=27
2g_	2e_	2c#_	16A
.	.	.	16B-
.	.	.	16A
.	.	.	16G#
.	.	.	16A
.	.	.	16B-
.	.	.	16A
.	.	.	16G#
=28	=28	=28	=28
2g_	2e_	2c#_	4A
.	.	.	[4B-
=29	=29	=29	=29
4g]	4e]	4c#]	4B-]
4b-	4c#	4c#	4G
=30	=30	=30	=30
4a	4d	4d	4F#
8r	8r	8r	8r
8dd	8a	8f#	8d
=31	=31	=31	=31
8dd	8a	8f#	8d
8dd	8a	8f#	8d
8dd	8a	8f#	8d
8dd	8a	8f#	8d
=32	=32	=32	=32
8.cc#	2a	2g	2e
16dd	.	.	.
8cc#	.	.	.
8a	.	.	.
=33	=33	=33	=33
8dd	8a	8f#	8d
8dd	8a	8f#	8d
8dd	8a	8f#	8d
8dd	8a	8f#	8d
=34	=34	=34	=34
32ee	4ee	4A	4c#
32ff#	.	.	.
8.gg	.	.	.
8r	8r	8r	8r
8ff#	8a	8d	8d
=35	=35	=35	=35
4ee	4g	4G	4G
8dd	8f#	4A	4A
8cc#	8e	.	.
=36	=36	=36	=36
4dd	4f#	4d	4D
8r	4r	4r	4r
8ddd	.	.	.
=37	=37	=37	=37
8ccc#	4r	4r	2r
8ddd	.	.	.
8bb	4ff#	[4dd	.
8aa	.	.	.
=38	=38	=38	=38
4gg#	4ee	8dd]	2r
.	.	8b	.
8aa	8ee	8cc	.
8ccc	8r	8r	.
=39	=39	=39	=39
8bb	4r	4r	2r
8ccc	.	.	.
8aa	4ee	[4cc	.
8gg	.	.	.
=40	=40	=40	=40
4ff#	4dd	8cc]	2r
.	.	8a	.
8gg	8dd	8b	.
8bb	8r	8r	.
=41	=41	=41	=41
8aa#	4r	4r	4r
8bb	.	.	.
8gg	4b	4g	[4G
8ee	.	.	.
=42	=42	=42	=42
4cc#	4.a	4e	8G]
.	.	.	8E
8dd	.	4d	4F#
[8aa	[8ff#	.	.
=43	=43	=43	=43
8aa]	8ff#]	4g	4G
8gg	8ee	.	.
8ff#	8dd	4a	4A
8ee	8cc#	.	.
=44	=44	=44	=44
4dd	4dd	4d	4D
4r	4r	4D	8r
.	.	.	8d
=45	=45	=45	=45
4r	4r	4r	8c#
.	.	.	8d
4ff#	[4dd	[4B	8B
.	.	.	8A
=46	=46	=46	=46
4ee	8dd]	4B]	4G#
.	8b	.	.
8ee	8cc	8A	8A
8r	8r	8r	8c
=47	=47	=47	=47
4r	4r	4r	8B
.	.	.	8c
4ee	[4cc	[4A	8A
.	.	.	8G
=48	=48	=48	=48
4dd	8cc]	4A]	4F#
.	8a	.	.
8dd	8b	8G	8G
8r	8r	8r	8B
=49	=49	=49	=49
4r	4r	4r	8A#
.	.	.	8B
[4b	[4g	4G	8G
.	.	.	8E
=50	=50	=50	=50
8b]	8g]	4c#	4C#
4bb	4gg	.	.
.	.	4d	4D
[8aa	[8ff#	.	.
=51	=51	=51	=51
8aa]	8ff#]	4G	4GG
8gg	8ee	.	.
8ff#	8dd	4A	4AA
8ee	8cc#	.	.
=52	=52	=52	=52
16dd	[2dd	2F#	[2BB
16ee	.	.	.
16ff#	.	.	.
16ee	.	.	.
16dd	.	.	.
16cc#	.	.	.
16b	.	.	.
16a	.	.	.
=53	=53	=53	=53
2g#	8dd]	2B	8BB]
.	8d	.	8BB
.	8d	.	8BB
.	8d	.	8BB
=54	=54	=54	=54
16g	4e	4A	4C#
16cc#	.	.	.
16ee	.	.	.
16dd	.	.	.
16cc#	8r	8r	8r
16b	.	.	.
16a	8e	8A	8C#
16g	.	.	.
=55	=55	=55	=55
16f#	4A	4A	4D
16a	.	.	.
16dd	.	.	.
16cc#	.	.	.
16b	8r	8r	8r
16a	.	.	.
16g	8A	8F#	8F#
16f#	.	.	.
=56	=56	=56	=56
8e	8B	4G	4G
8b	8g	.	.
8a	8f#	4A	4A
8c#	8e	.	.
=57	=57	=57	=57
4d	4d	4D	4D
8r	8r	4r	4r
16f#	16d	.	.
16g	16e	.	.
=58	=58	=58	=58
8a	8f#	2r	2r
8f#	8d	.	.
8g	8e	.	.
8a	8f#	.	.
=59	=59	=59	=59
4b	4g	4.r	4.r
4r	4r	.	.
.	.	16e	16C#
.	.	16f#	16D
=60	=60	=60	=60
2r	2r	8g	8E
.	.	8e	8C#
.	.	8f#	8D
.	.	8g	8E
=61	=61	=61	=61
4.r	2r	4a	4F#
.	.	4r	4r
8a	.	.	.
=62	=62	=62	=62
8dd	8a	8f#	8D
8dd	8a	8f#	8D
8dd	8a	8f#	8D
8dd	8a	8f#	8D
=63	=63	=63	=63
8.cc#	2a	2g	2E
16dd	.	.	.
8cc#	.	.	.
8a	.	.	.
=64	=64	=64	=64
8dd	8a	8a	8F#
8ee	8a	8a	8C#
8ff#	8a	8a	8D
8gg	8ee	8b	8GG
=65	=65	=65	=65
4ff#	4dd	2a	2AA
8ee	8cc#	.	.
8a	8a	.	.
=66	=66	=66	=66
8dd	8a	8f#	8DD
8dd	8a	8f#	8D
8dd	8a	8f#	8D
8dd	8a	[8f#	8D
=67	=67	=67	=67
8.cc	2a	2f#]	2D#
16dd	.	.	.
8cc	.	.	.
8a	.	.	.
=68	=68	=68	=68
8g	8B	4e	4E
4ee	4g	.	.
.	.	4A#	4AA#
8gg	8ee	.	.
=69	=69	=69	=69
8gg	8ee	4B	4BB
8ff#	8dd#	.	.
8r	4r	4r	4r
8bb	.	.	.
=70	=70	=70	=70
8aa#	2r	2r	2r
8bb	.	.	.
8gg	.	.	.
8ee	.	.	.
=71	=71	=71	=71
4dd#	4a	4f#	4B
8ee	8g	8e	8E
8gg	8r	8r	8r
=72	=72	=72	=72
8ff#	2r	2r	2r
8gg	.	.	.
8ee	.	.	.
8cc	.	.	.
=73	=73	=73	=73
4a#	4e	8g	4c
.	.	8e	.
8b	8d#	8f#	8B
8ff#	8r	8r	8r
=74	=74	=74	=74
8ee#	4r	4r	4r
8ff#	.	.	.
8dd#	4d#	4f#	4B
8a	.	.	.
=75	=75	=75	=75
8g	8e	4e	4c
4ee	4g	.	.
.	.	4G	4G
8gg	8b	.	.
=76	=76	=76	=76
8gg	8b	4A	4A
8ff#	8a	.	.
8ee	8g	4B	4B
8dd#	8f#	.	.
=77	=77	=77	=77
4ee	4e	4e	4E
8r	8r	4r	4r
16g	16e	.	.
16a	16f#	.	.
=78	=78	=78	=78
8b	8g	2r	2r
8g	8e	.	.
8a	8f#	.	.
8b	8g	.	.
=79	=79	=79	=79
4cc	4a	2r	2r
8r	8r	.	.
16a	16f#	.	.
16b	16g	.	.
=80	=80	=80	=80
8cc	8a	2r	2r
8a	8f#	.	.
8b	8g	.	.
8cc	8a	.	.
=81	=81	=81	=81
4dd	4b	2r	2r
8r	4r	.	.
8d	.	.	.
=82	=82	=82	=82
8g	8d	8B	8G
8g	8d	8B	8G
8g	8d	8B	8G
8g	8d	8B	8G
=83	=83	=83	=83
8.f#	2d	2c	2A
16g	.	.	.
8f#	.	.	.
8d	.	.	.
=84	=84	=84	=84
8g	8d	8d	8B
8a	8d	8d	8F#
8b	8d	8d	8G
8cc	8a	8e	8C
=85	=85	=85	=85
4b	4g	[2d	4D
8a	8f#	.	4r
8dd	8b	.	.
=86	=86	=86	=86
4cc	4a	2d_	4D
8b	8g	.	4r
8ee	8cc	.	.
=87	=87	=87	=87
4dd	4b	2d_	4D
8cc	8a	.	4r
8gg	8b	.	.
=88	=88	=88	=88
8ff#	8a	2d_	4D
8ee	8g	.	.
8dd	8f#	.	4r
8cc#	8e	.	.
=89	=89	=89	=89
8dd	4d	4d]	4D
4r	.	.	.
.	4r	4r	4r
8ddd	.	.	.
=90	=90	=90	=90
8ccc#	2r	2r	2r
8ddd	.	.	.
8bb	.	.	.
8aa	.	.	.
=91	=91	=91	=91
4gg#	4dd	4b	4E
8aa	8cc	8a	8AA
8ccc	8r	8r	8r
=92	=92	=92	=92
8bb	2r	2r	2r
8ccc	.	.	.
8aa	.	.	.
8ff#	.	.	.
=93	=93	=93	=93
8dd	4.f#	4.d	2r
8ccc	.	.	.
[4dd	.	.	.
.	8g	8e	.
=94	=94	=94	=94
8dd]	8a	8f#	2r
8ee-	8b-	8g	.
8dd	8a	8f#	.
8cc#	8g	8e	.
=95	=95	=95	=95
8dd	4.f#	4.d	2r
8ccc	.	.	.
[4dd	.	.	.
.	8g	8e	.
=96	=96	=96	=96
8dd]	8a	8f#	2r
8ee-	8b-	8g	.
8dd	8a	8f#	.
8cc#	8g	8e	.
=97	=97	=97	=97
16dd	16a	16f#	2r
16ee-	16b-	16g	.
16dd	16a	16f#	.
16cc#	16g	16e	.
16dd	16a	16f#	.
16ee-	16b-	16g	.
16dd	16a	16f#	.
16cc#	16g	16e	.
=98	=98	=98	=98
16dd	16a	16f#	2r
16ee-	16b-	16g	.
16dd	16a	16f#	.
16cc#	16g	16e	.
16dd	16a	16f#	.
16ee-	16b-	16g	.
16dd	16a	16f#	.
16cc#	16g	16e	.
=99	=99	=99	=99
4dd	[2a	[2f#	2r
[4ee-	.	.	.
=100	=100	=100	=100
4ee-]	2a_	2f#_	2r
4dd	.	.	.
=101	=101	=101	=101
[2cc	2a_	2f#_	16d
.	.	.	16e-
.	.	.	16d
.	.	.	16c#
.	.	.	16d
.	.	.	16e-
.	.	.	16d
.	.	.	16c#
=102	=102	=102	=102
2cc_	2a_	2f#_	16d
.	.	.	16e-
.	.	.	16d
.	.	.	16c#
.	.	.	16d
.	.	.	16e-
.	.	.	16d
.	.	.	16c#
=103	=103	=103	=103
2cc_	2a_	2f#_	4d
.	.	.	[4e-
=104	=104	=104	=104
4cc]	4a]	4f#]	4e-]
4ee-	4f#	4a	4c
=105	=105	=105	=105
4dd	4g	4b	4B
8r	4r	4r	4r
8d	.	.	.
=106	=106	=106	=106
8g	8d	8B	8G
8g	8d	8B	8G
8g	8d	8B	8G
8g	8d	8B	8G
=107	=107	=107	=107
8.f#	2d	2c	2A
16g	.	.	.
8f#	.	.	.
8d	.	.	.
=108	=108	=108	=108
8g	8d	8B	8G
8g	8d	8B	8G
8g	8d	8B	8G
8g	8d	8B	8G
=109	=109	=109	=109
32a	4a	4D	4F#
32b	.	.	.
8.cc	.	.	.
8r	8r	8r	8r
8b	8d	8G	8G
=110	=110	=110	=110
4a	4c	4c	4C
8g	8B	4d	4D
8f#	8A	.	.
=111	=111	=111	=111
4g	4B	4G	4G
8r	4r	4r	4r
8gg	.	.	.
=112	=112	=112	=112
8ff#	4r	4r	2r
8gg	.	.	.
8ee	4b	[4g	.
8dd	.	.	.
=113	=113	=113	=113
4cc#	4a	8g]	2r
.	.	8e	.
8dd	8a	8f	.
8ff	8r	8r	.
=114	=114	=114	=114
8ee	4r	4r	2r
8ff	.	.	.
8dd	4a	[4f	.
8cc	.	.	.
=115	=115	=115	=115
4b	4g	8f]	2r
.	.	8d	.
8cc	8g	8e	.
8ee	8r	8r	.
=116	=116	=116	=116
8dd#	4r	4r	4r
8ee	.	.	.
8cc	4e	4c	[4c
8a	.	.	.
=117	=117	=117	=117
4f#	4.d	4A	8c]
.	.	.	8A
8g	.	4G	8B
[8dd	[8b	.	8BB
=118	=118	=118	=118
8dd]	8b]	4c	4C
8cc	8a	.	.
8b	8g	4d	4D
8a	8f#	.	.
=119	=119	=119	=119
4g	4g	8G	4GG
.	.	8g	.
4r	4r	4r	8r
.	.	.	8g
=120	=120	=120	=120
4r	4r	4r	8f#
.	.	.	8g
4b	[4g	[4e	8e
.	.	.	8d
=121	=121	=121	=121
4a	8g]	4e]	4c#
.	8e	.	.
8a	8f	8d	8d
8r	8r	8r	8f
=122	=122	=122	=122
4r	4r	4r	8e
.	.	.	8f
4a	[4f	[4d	8d
.	.	.	8c
=123	=123	=123	=123
4g	8f]	4d]	4B
.	8d	.	.
8g	8e	8c	8c
8r	8r	8r	8e
=124	=124	=124	=124
4r	4r	4r	8d#
.	.	.	8e
[4ee	[4cc	8cc	8c
.	.	8a	8A
=125	=125	=125	=125
8ee]	8cc]	4f#	4F#
4ccc	4ee	.	.
.	.	4g	4G
[8bb	[8dd	.	.
=126	=126	=126	=126
8bb]	8dd]	4c	4C
8aa	8cc	.	.
8gg	8b	4d	4D
8ff#	8a	.	.
=127	=127	=127	=127
16gg	[2g	2B	[2E
16aa	.	.	.
16bb	.	.	.
16aa	.	.	.
16gg	.	.	.
16ff#	.	.	.
16ee	.	.	.
16dd	.	.	.
=128	=128	=128	=128
2cc#	8g]	2e	8E]
.	8g	.	8E
.	8g	.	8E
.	8g	.	8E
=129	=129	=129	=129
16cc	4a	4d	4F#
16ff#	.	.	.
16aa	.	.	.
16gg	.	.	.
16ff#	8r	8r	8r
16ee	.	.	.
16dd	8a	8d	8F#
16cc	.	.	.
=130	=130	=130	=130
16b	4d	4d	4G
16dd	.	.	.
16gg	.	.	.
16ff#	.	.	.
16ee	8r	8r	8r
16dd	.	.	.
16cc	8d	8B	8BB
16b	.	.	.
=131	=131	=131	=131
8a	8e	4c	4C
8ee	8cc	.	.
8dd	8b	4d	4D
8f#	8a	.	.
=132	=132	=132	=132
4g	4g	4G	4GG
8r	8r	4r	4r
16b	16g	.	.
16cc	16a	.	.
=133	=133	=133	=133
8dd	8b	2r	2r
8b	8g	.	.
8cc	8a	.	.
8dd	8b	.	.
=134	=134	=134	=134
4ee	4cc	4.r	4.r
4r	4r	.	.
.	.	16A	16F#
.	.	16B	16G
=135	=135	=135	=135
2r	2r	8c	8A
.	.	8A	8F#
.	.	8B	8G
.	.	8c	8A
=136	=136	=136	=136
2r	2r	4d	4B
.	.	4r	4r
=137	=137	=137	=137
2f#	2c	2A	2D
=138	=138	=138	=138
4g	4B	4G	4GG
4r	4r	4r	4r
==	==	==	==
*-	*-	*-	*-
!!!RWG1: This file contains only pitch and duration data.
!!!RWG2: Transposing instruments are not transposed.
!!!RWG3: Spines may have incompatible meters.
!!!RWG4: Durations of rests and tied notes may be interpreted.
!!!RWG: Key is interpreted using the Humdrum key tool.
!!!AFT: stage1
!!!END: 1997/04/15
!!format changes:
!!content changes:
!!public access: complete
!!!KEY: 3367946674
!!!EMD: Converted from MuseData to Humdrum Dec 16, 2000, by Andreas Kornstaedt using muse2kern.
